X:1
T:Title
%%score ( 1 2 ) 3
L:1/8
Q:1/4=95
M:4/4
K:Bb
V:1 treble nm="Grand Piano, Soprano"
V:2 treble 
V:3 bass nm="Choir Pad, Every Step, J. Rowe, 1912"
V:1
 [DB]2 [DF]2 [EG][EA][DB]F | [EG]2 [GB]2 [Fd]4 | [Fd]>[Ge] [Fd]>[Ec] [DB]2 [Fd]2 | [Fc]6 z2 | %4
w: By~David~Martin~Ragle * * * * *||||
 [Fd]2 [Ge]2 [Fd][Ec][DB]F | [EF]2 [D_A]2 [EG]4 | [DF]>[FB] [EA]>[DB] [Fd]2 [Ec]2 | %7
w: |||
 [DB]6 [DF]>[DF] | [DF]2 z2 E2 [DB]>[FA] | B2- [^FB-]2 [GB]2 z2 | [EB]>[EA] [EB][EG] [DF]2 [FB]2 | %11
w: ||||
 [Fc]6 z2 | [Fd][Ge][Fd][Ec] [DB]2 FF | [EF]2 [D_A]2 [EG]4 | [DF]>[FB] [EA]>[DB] [Fd]2 [Ec]2 | %15
w: ||||
 [DB]8 |] %16
w: |
V:2
 x8 | x8 | x8 | x8 | x8 | x8 | x8 | x8 | z2 F4 z2 | F2 z2 z4 | x8 | x8 | x8 | x8 | x8 | x8 |] %16
V:3
 [B,,F,]2 [B,,B,]2 [B,,A,][B,,G,][B,,F,][D,B,] | [E,B,]2 [E,B,]2 [B,,B,]4 | %2
 [B,,B,]>[B,,B,] [B,,B,]>[C,A,] [D,B,]2 [B,,B,]2 | [F,A,]6 z2 | B,2 B,2 B,[F,A,][G,B,][D,B,] | %5
 [F,C]2 B,2 [E,B,]4 | [F,B,]>[F,D] [F,C]>[F,B,] [F,B,]2 F,2 | [B,,F,]6 [B,,B,]>[B,,B,] | %8
 [B,,B,]2 [D,B,]2 [F,A,]2 [G,B,]>[F,C] | [B,D]2 [D,C]2 [E,B,]2 z2 | %10
 [E,G,]>[E,^F,] [E,G,][E,B,] [B,,B,]2 [D,B,]2 | [F,A,]6 z2 | B,B,B,[F,A,] [G,B,]2 [D,B,][D,B,] | %13
 [F,C]2 B,2 [E,B,]4 | [F,B,]>[F,D] [F,C]>[F,B,] [F,B,]2 F,2 | [B,,F,]8 |] %16

